X:1
T:Blue Moon
T:Blue Moon	
T:music by Richard Rodgers
C:Richard Rodgers
Z:All Rights Reserved
L:1/8
Q:1/4=120
M:4/4
K:Eb
V:1 treble nm="MusicXML Part"
%%MIDI channel 2
%%MIDI program 0
%%MIDI control 7 102
%%MIDI control 10 64
V:1
 z4 z2"Bb7" B2 |:"Eb""Cm" B8- |"Fm7" BABc"Bb7" BBAB- |"Eb""Cm" B8- |"Fm" BFGA"Bb7" GGFG- | %5
w: Blue|Moon-|* you saw me stan- ding a- lone|_|* with- out a dream in my heart-|
"Eb""Cm" G8- |"Fm7" GEFG EEEE- |"Eb" E4"Ab" z4 |"Eb" z4"Bb7" z2 B2 |"Eb""Cm" B8- | %10
w: |* with- out a love of my own|_|Blue|Moon-|
"Fm7" BABc"Bb7" BBAB- |"Eb" B B3-"Cm7" B4- |"Fm" BFGA"Bb7" GGFG- |"Eb" G G3-"Cm7" G4- | %14
w: * you knew just what I was- there-|* for- *|* You heard me say- ing a pray'r|_ for _|
"Fm7" GEFG EEEE- |"Eb" E E3-"Ab6" E4- |"Eb" E4 z EEE |"Ab6" FFFF"Bb7" G2 G2 |"Eb" E F3- FEEE | %19
w: _ Some- one- I real- ly could care|_ for _|_ And then there|sud- den- ly ap- peared- be-|fore me _ The on- ly|
"Ab6" FFFF"Bb7" G2 G2 |"Eb" E4- EEEE |"Abm" EEEE"Db9" F2 F2 |"Gb" _D D3- DDDD | %23
w: one my arms will Ev- er|hold, _ I heard some-|bo- dy whis- per please, a-|dore me _ And when I|
"Bb" D>D D>D"F7" F2 F2 |"Fm7" B6"Bb7" B2 |"Eb""Cm" B8- |"Fm7" BABc"Bb7" BBAB- |"Eb""Cm" B8- | %28
w: looked the moon had turned to|gold! Blue|moon|_ now i'm no long- er a- lone|_|
"Fm" BFGA"Bb7" GGFG- |"Eb""Cm" G8- |"Fm7" GEFG EEEE- |1"Eb" E4"Ab" z4 |"Eb" z4"Bb7" z2 B2 :|2 %33
w: * with- out a dream in my heart,|_|* with- out a love of my own|_||
"Eb" E4"Ab6" z4 ||"Eb" e8 |] %35
w: ||

